tenants/businesswise/icons/globe.svg

<svg fill="none" height="24" viewBox="0 0 24 24" width="24" xmlns="http://www.w3.org/2000/svg"><path d="m12 2c-5.52419 0-10 4.47581-10 10 0 5.5242 4.47581 10 10 10 5.5242 0 10-4.4758 10-10 0-5.52419-4.4758-10-10-10zm7.7903 6.12903h-3.3266c-.3629-1.79032-.9718-3.31451-1.7419-4.39919 2.2177.73387 4.0403 2.33468 5.0685 4.39919zm-4.2419 3.87097c0 .9234-.0645 1.7823-.1734 2.5806h-6.75c-.10887-.7983-.17339-1.6572-.17339-2.5806s.06452-1.7823.17339-2.58065h6.75c.1089.79835.1734 1.65725.1734 2.58065zm-3.5484-8.70968c1.0847 0 2.4758 1.77823 3.1492 4.83871h-6.29839c.67338-3.06048 2.06449-4.83871 3.14919-4.83871zm-2.72177.43952c-.76613 1.08064-1.37904 2.60484-1.74194 4.39919h-3.32661c1.02822-2.06451 2.8508-3.66532 5.06855-4.39919zm-5.98791 8.27016c0-.8992.1371-1.7661.39113-2.58065h3.64919c-.10483.82665-.16935 1.68545-.16935 2.58065s.06048 1.754.16935 2.5806h-3.64919c-.25403-.8145-.39113-1.6814-.39113-2.5806zm.91936 3.871h3.32661c.3629 1.7903.97177 3.3145 1.74194 4.3992-2.21775-.7339-4.04033-2.3347-5.06855-4.3992zm7.79032 4.8387c-1.0847 0-2.47581-1.7782-3.14919-4.8387h6.29839c-.6734 3.0605-2.0645 4.8387-3.1492 4.8387zm2.7218-.4395c.7661-1.0807 1.379-2.6049 1.7419-4.3992h3.3266c-1.0282 2.0645-2.8508 3.6653-5.0685 4.3992zm1.9476-5.6896c.1048-.8266.1693-1.6854.1693-2.5806s-.0605-1.754-.1693-2.58065h3.6491c.2541.81455.3912 1.68145.3912 2.58065s-.1371 1.7661-.3912 2.5806z" fill="#000"/></svg>

<svg width="24" height="24" viewBox="0 0 24 24" fill="none" xmlns="http://www.w3.org/2000/svg">
<path d="M12 2C6.47581 2 2 6.47581 2 12C2 17.5242 6.47581 22 12 22C17.5242 22 22 17.5242 22 12C22 6.47581 17.5242 2 12 2ZM19.7903 8.12903H16.4637C16.1008 6.33871 15.4919 4.81452 14.7218 3.72984C16.9395 4.46371 18.7621 6.06452 19.7903 8.12903ZM15.5484 12C15.5484 12.9234 15.4839 13.7823 15.375 14.5806H8.625C8.51613 13.7823 8.45161 12.9234 8.45161 12C8.45161 11.0766 8.51613 10.2177 8.625 9.41935H15.375C15.4839 10.2177 15.5484 11.0766 15.5484 12V12ZM12 3.29032C13.0847 3.29032 14.4758 5.06855 15.1492 8.12903H8.85081C9.52419 5.06855 10.9153 3.29032 12 3.29032ZM9.27823 3.72984C8.5121 4.81048 7.89919 6.33468 7.53629 8.12903H4.20968C5.2379 6.06452 7.06048 4.46371 9.27823 3.72984V3.72984ZM3.29032 12C3.29032 11.1008 3.42742 10.2339 3.68145 9.41935H7.33064C7.22581 10.246 7.16129 11.1048 7.16129 12C7.16129 12.8952 7.22177 13.754 7.33064 14.5806H3.68145C3.42742 13.7661 3.29032 12.8992 3.29032 12ZM4.20968 15.871H7.53629C7.89919 17.6613 8.50806 19.1855 9.27823 20.2702C7.06048 19.5363 5.2379 17.9355 4.20968 15.871ZM12 20.7097C10.9153 20.7097 9.52419 18.9315 8.85081 15.871H15.1492C14.4758 18.9315 13.0847 20.7097 12 20.7097V20.7097ZM14.7218 20.2702C15.4879 19.1895 16.1008 17.6653 16.4637 15.871H19.7903C18.7621 17.9355 16.9395 19.5363 14.7218 20.2702ZM16.6694 14.5806C16.7742 13.754 16.8387 12.8952 16.8387 12C16.8387 11.1048 16.7782 10.246 16.6694 9.41935H20.3185C20.5726 10.2339 20.7097 11.1008 20.7097 12C20.7097 12.8992 20.5726 13.7661 20.3185 14.5806H16.6694Z" fill="black"/>
</svg>
